build/img/landings/express-smm/features-3-mob.svg

<svg width="247" height="245" viewBox="0 0 247 245" fill="none" xmlns="http://www.w3.org/2000/svg">
<g clip-path="url(#clip0)">
<path d="M103.428 115.563L137.125 160.984C137.577 161.593 138.161 162.091 138.833 162.441C139.506 162.791 140.249 162.983 141.006 163.004L156.548 163.428C157.305 163.449 158.048 163.642 158.72 163.991C159.393 164.341 159.977 164.839 160.428 165.448L176.287 186.824C176.679 187.351 176.962 187.951 177.122 188.589C177.282 189.226 177.315 189.889 177.219 190.539C177.123 191.189 176.899 191.814 176.562 192.377C176.224 192.941 175.779 193.433 175.251 193.825L129.599 227.712C129.071 228.103 128.472 228.387 127.834 228.547C127.197 228.707 126.535 228.739 125.885 228.643C125.235 228.547 124.61 228.323 124.046 227.986C123.483 227.648 122.991 227.203 122.6 226.675L36.3607 110.435C35.5703 109.369 35.2354 108.032 35.4296 106.72C35.6239 105.407 36.3314 104.225 37.3965 103.434L83.0508 69.548C84.1161 68.757 85.4519 68.4217 86.7644 68.6158C88.0769 68.8099 89.2587 69.5177 90.0496 70.5832L105.907 91.9591C106.359 92.568 106.666 93.2716 106.806 94.0168C106.947 94.762 106.916 95.5293 106.716 96.2608L102.618 111.255C102.417 111.987 102.386 112.756 102.526 113.502C102.666 114.249 102.975 114.953 103.428 115.563Z" fill="#FF5050" stroke="black" stroke-width="7" stroke-linecap="round" stroke-linejoin="round"/>
<path d="M84.4861 91.5919C85.6374 91.4024 86.417 90.3151 86.2274 89.1635C86.0378 88.0118 84.9508 87.2319 83.7995 87.4214C82.6482 87.611 81.8685 88.6982 82.0581 89.8499C82.2477 91.0015 83.3348 91.7815 84.4861 91.5919Z" fill="#FF5050" stroke="black" stroke-width="2" stroke-linecap="round" stroke-linejoin="round"/>
<path d="M85.5837 84.1818C86.7351 83.9922 87.5147 82.905 87.3251 81.7533C87.1355 80.6017 86.0485 79.8217 84.8971 80.0113C83.7458 80.2008 82.9662 81.2881 83.1558 82.4397C83.3454 83.5914 84.4324 84.3713 85.5837 84.1818Z" fill="#FF5050" stroke="black" stroke-width="2" stroke-linecap="round" stroke-linejoin="round"/>
<path d="M83.3923 99.0011C84.5437 98.8116 85.3233 97.7243 85.1337 96.5727C84.9441 95.421 83.857 94.6411 82.7057 94.8306C81.5544 95.0202 80.7748 96.1074 80.9644 97.2591C81.154 98.4107 82.241 99.1907 83.3923 99.0011Z" fill="#FF5050" stroke="black" stroke-width="2" stroke-linecap="round" stroke-linejoin="round"/>
<path d="M77.0798 90.4943C78.2312 90.3047 79.0108 89.2175 78.8212 88.0658C78.6316 86.9142 77.5446 86.1342 76.3932 86.3238C75.2419 86.5133 74.4623 87.6006 74.6519 88.7522C74.8415 89.9039 75.9285 90.6838 77.0798 90.4943Z" fill="#FF5050" stroke="black" stroke-width="2" stroke-linecap="round" stroke-linejoin="round"/>
<path d="M91.8924 92.6886C93.0437 92.4991 93.8233 91.4118 93.6337 90.2602C93.4441 89.1085 92.3571 88.3286 91.2057 88.5181C90.0544 88.7077 89.2748 89.7949 89.4644 90.9466C89.654 92.0982 90.741 92.8782 91.8924 92.6886Z" fill="#FF5050" stroke="black" stroke-width="2" stroke-linecap="round" stroke-linejoin="round"/>
<path d="M76.4318 135.599L110.13 181.02C110.581 181.629 111.165 182.127 111.837 182.478C112.51 182.828 113.253 183.021 114.011 183.041L129.552 183.464C130.31 183.485 131.053 183.678 131.725 184.028C132.397 184.378 132.981 184.877 133.433 185.486L149.291 206.861C150.082 207.927 150.417 209.263 150.222 210.576C150.028 211.888 149.321 213.07 148.255 213.861L129.596 227.712C129.068 228.104 128.468 228.388 127.831 228.548C127.194 228.708 126.531 228.74 125.881 228.644C125.232 228.548 124.607 228.324 124.043 227.987C123.48 227.649 122.988 227.203 122.596 226.676L36.3575 110.435C35.5671 109.37 35.2322 108.033 35.4264 106.72C35.6207 105.408 36.3282 104.226 37.3934 103.435L56.055 89.5841C57.1204 88.7937 58.4561 88.4589 59.7683 88.6533C61.0805 88.8478 62.2618 89.5556 63.0525 90.6211L78.9112 111.997C79.363 112.605 79.6706 113.309 79.8107 114.054C79.9508 114.799 79.9198 115.566 79.72 116.297L75.6235 131.302C75.4241 132.032 75.3933 132.799 75.5333 133.543C75.6733 134.288 75.9806 134.99 76.4318 135.599Z" fill="#2243E5" stroke="black" stroke-width="2" stroke-linecap="round" stroke-linejoin="round"/>
<path d="M83.1278 111.898L102.903 97.2193" stroke="black" stroke-width="2" stroke-linecap="round" stroke-linejoin="round"/>
<path d="M78.3417 131.483L99.4589 115.81" stroke="black" stroke-width="2" stroke-linecap="round" stroke-linejoin="round"/>
<path d="M114.807 180.642L135.924 164.967" stroke="black" stroke-width="2" stroke-linecap="round" stroke-linejoin="round"/>
<path d="M134.589 181.259L154.364 166.583" stroke="black" stroke-width="2" stroke-linecap="round" stroke-linejoin="round"/>
<path d="M42.6728 81.0463L35.7031 86.2197L44.6059 98.2194L51.5755 93.046L42.6728 81.0463Z" fill="#2243E5" stroke="black" stroke-width="2" stroke-linecap="round" stroke-linejoin="round"/>
<path d="M39.1531 83.6592L9.53516 43.7363" stroke="black" stroke-width="2" stroke-linecap="round" stroke-linejoin="round"/>
<path d="M99.7142 149.44L97.2674 151.256C96.5718 151.773 96.4264 152.756 96.9427 153.451L98.9893 156.21C99.5056 156.906 100.488 157.051 101.184 156.535L103.631 154.719C104.326 154.203 104.472 153.22 103.955 152.524L101.909 149.765C101.392 149.069 100.41 148.924 99.7142 149.44Z" fill="#FFB3B3" stroke="black" stroke-width="2" stroke-linecap="round" stroke-linejoin="round"/>
<path d="M106.277 144.569L103.83 146.385C103.134 146.902 102.989 147.884 103.505 148.58L105.552 151.339C106.068 152.035 107.051 152.18 107.746 151.664L110.193 149.848C110.889 149.331 111.034 148.349 110.518 147.653L108.471 144.894C107.955 144.198 106.972 144.053 106.277 144.569Z" fill="#FFB3B3" stroke="black" stroke-width="2" stroke-linecap="round" stroke-linejoin="round"/>
<path d="M112.839 139.698L110.392 141.514C109.697 142.031 109.551 143.013 110.068 143.709L112.114 146.468C112.631 147.164 113.613 147.309 114.309 146.793L116.756 144.977C117.451 144.46 117.597 143.478 117.08 142.782L115.034 140.023C114.517 139.327 113.535 139.182 112.839 139.698Z" fill="#FFB3B3" stroke="black" stroke-width="2" stroke-linecap="round" stroke-linejoin="round"/>
<path d="M105.679 157.481L103.232 159.297C102.537 159.814 102.391 160.797 102.907 161.492L104.954 164.251C105.47 164.947 106.453 165.093 107.149 164.576L109.595 162.76C110.291 162.244 110.436 161.261 109.92 160.565L107.873 157.806C107.357 157.11 106.375 156.965 105.679 157.481Z" fill="#FF5050" stroke="black" stroke-width="2" stroke-linecap="round" stroke-linejoin="round"/>
<path d="M112.242 152.609L109.795 154.425C109.099 154.942 108.954 155.924 109.47 156.62L111.517 159.379C112.033 160.075 113.015 160.22 113.711 159.704L116.158 157.888C116.854 157.371 116.999 156.389 116.483 155.693L114.436 152.934C113.92 152.238 112.937 152.093 112.242 152.609Z" fill="#FFB3B3" stroke="black" stroke-width="2" stroke-linecap="round" stroke-linejoin="round"/>
<path d="M118.804 147.739L116.357 149.555C115.662 150.072 115.516 151.054 116.032 151.75L118.079 154.509C118.595 155.205 119.578 155.35 120.274 154.834L122.72 153.018C123.416 152.501 123.561 151.519 123.045 150.823L120.999 148.064C120.482 147.368 119.5 147.223 118.804 147.739Z" fill="#FFB3B3" stroke="black" stroke-width="2" stroke-linecap="round" stroke-linejoin="round"/>
<path d="M111.601 165.46L109.154 167.276C108.458 167.792 108.313 168.775 108.829 169.471L110.876 172.23C111.392 172.925 112.375 173.071 113.07 172.555L115.517 170.738C116.213 170.222 116.358 169.239 115.842 168.543L113.795 165.785C113.279 165.089 112.297 164.943 111.601 165.46Z" fill="#FFB3B3" stroke="black" stroke-width="2" stroke-linecap="round" stroke-linejoin="round"/>
<path d="M118.163 160.59L115.717 162.406C115.021 162.922 114.876 163.905 115.392 164.601L117.439 167.359C117.955 168.055 118.937 168.201 119.633 167.685L122.08 165.868C122.775 165.352 122.921 164.369 122.404 163.673L120.358 160.915C119.842 160.219 118.859 160.073 118.163 160.59Z" fill="#FFB3B3" stroke="black" stroke-width="2" stroke-linecap="round" stroke-linejoin="round"/>
<path d="M159.584 177.125L145.409 187.647C144.872 188.045 144.76 188.803 145.158 189.34L145.52 189.827C145.918 190.363 146.675 190.476 147.212 190.077L161.387 179.555C161.923 179.157 162.035 178.399 161.637 177.863L161.276 177.376C160.878 176.839 160.12 176.727 159.584 177.125Z" fill="#FF5050" stroke="black" stroke-width="2" stroke-linecap="round" stroke-linejoin="round"/>
<path d="M163.435 182.32L149.26 192.842C148.724 193.24 148.612 193.997 149.01 194.534L149.371 195.021C149.769 195.558 150.527 195.67 151.063 195.272L165.238 184.75C165.775 184.352 165.887 183.594 165.489 183.057L165.128 182.57C164.729 182.034 163.972 181.921 163.435 182.32Z" fill="#FF5050" stroke="black" stroke-width="2" stroke-linecap="round" stroke-linejoin="round"/>
<path d="M124.722 155.72L122.275 157.536C121.58 158.052 121.434 159.035 121.95 159.731L123.997 162.489C124.513 163.185 125.496 163.331 126.192 162.814L128.638 160.998C129.334 160.482 129.479 159.499 128.963 158.803L126.916 156.045C126.4 155.349 125.418 155.203 124.722 155.72Z" fill="#FF5050" stroke="black" stroke-width="2" stroke-linecap="round" stroke-linejoin="round"/>
<path d="M85.7233 136.792L125.331 37.4917L156.278 86.959L183.785 110.445L92.4893 145.467" fill="#FFD400"/>
<path d="M85.7233 136.792L125.331 37.4917L156.278 86.959L183.786 110.445L92.4893 145.467" stroke="black" stroke-width="2" stroke-linecap="round" stroke-linejoin="round"/>
<path d="M101.385 124.695L86.5479 135.708C85.391 136.567 85.1492 138.201 86.0078 139.358L89.8203 144.497C90.679 145.654 92.3129 145.896 93.4698 145.038L108.307 134.024C109.464 133.166 109.705 131.531 108.847 130.374L105.034 125.235C104.176 124.078 102.542 123.836 101.385 124.695Z" fill="white" stroke="black" stroke-width="2" stroke-linecap="round" stroke-linejoin="round"/>
<path d="M210.135 63.6405C210.135 63.6405 219.738 87.8268 214.978 95.2785C210.826 101.781 199.938 101.654 195.053 101.53C183.029 101.226 182.648 100.91 183.791 110.439L125.52 132.795C125.52 132.795 121.932 121.53 124.799 107.572C125.99 101.808 128.63 96.4426 132.468 91.9818C136.307 87.521 141.218 84.1118 146.739 82.0758C139.738 81.3468 134.162 77.3397 130.814 70.6368C130.428 70.7819 130.028 70.8883 129.621 70.9544C127.969 71.2278 126.274 70.883 124.86 69.9861C123.445 69.0891 122.41 67.7027 121.953 66.0913C121.495 64.48 121.646 62.7565 122.378 61.2498C123.109 59.743 124.37 58.5585 125.919 57.9222C123.764 52.5531 120.584 39.8131 128.932 33.0804C136.491 26.977 145.82 28.6625 145.82 28.6625C145.82 28.6625 150.248 20.4633 157.839 19.565C165.985 18.5896 164.525 24.4325 164.525 24.4325C164.525 24.4325 169.453 23.2147 172.243 28.413C174.751 33.1159 170.713 36.7844 170.713 36.7844C170.713 36.7844 172.564 46.6306 171.96 50.1941C173.71 50.0579 175.444 50.6022 176.803 51.7137C178.162 52.8252 179.039 54.4181 179.253 56.1606C179.466 57.9031 178.999 59.6608 177.949 61.0674C176.899 62.474 175.347 63.4211 173.616 63.7113C173.205 63.7809 172.787 63.809 172.37 63.7952C171.349 71.2442 166.54 76.9625 159.747 79.9485C161.135 79.9875 162.52 80.1121 163.893 80.3217L163.919 80.3174C181.359 80.9781 195.172 85.985 199.831 81.7397C203.945 78.0176 190.162 47.6576 194.005 45.8603C197.077 44.4216 197.965 52.4893 201.105 53.0694C204.244 53.6494 211.252 44.767 213.31 45.2807C215.314 45.7766 208.742 53.4399 208.365 53.863C208.818 53.5725 217.724 47.7612 219.307 49.5714C220.938 51.4148 210.255 58.275 210.255 58.275C210.255 58.275 219.921 53.5444 221.014 55.6779C222.107 57.8114 210.135 63.6405 210.135 63.6405Z" fill="#FFD400" stroke="black" stroke-width="2" stroke-linecap="round" stroke-linejoin="round"/>
<path d="M146.125 54.3589C146.441 56.2815 144.924 56.7772 143.002 57.0936C141.08 57.4101 139.483 57.427 139.167 55.5044C139.015 54.5815 139.236 53.636 139.781 52.8759C140.326 52.1159 141.15 51.6036 142.073 51.4517C142.995 51.2997 143.941 51.5207 144.701 52.0659C145.46 52.6111 145.973 53.4359 146.125 54.3589Z" fill="#FFD400" stroke="black" stroke-width="2" stroke-linecap="round" stroke-linejoin="round"/>
<path d="M137.47 50.1899C137.555 49.6025 137.787 49.0459 138.144 48.5718C138.501 48.0977 138.972 47.7214 139.513 47.4777C140.054 47.234 140.648 47.1308 141.24 47.1777C141.831 47.2245 142.401 47.4199 142.897 47.7457" fill="#FFD400"/>
<path d="M137.47 50.1899C137.555 49.6025 137.787 49.0459 138.144 48.5718C138.501 48.0977 138.972 47.7214 139.513 47.4777C140.054 47.234 140.648 47.1308 141.24 47.1777C141.831 47.2245 142.401 47.4199 142.897 47.7457" stroke="black" stroke-width="2" stroke-linecap="round" stroke-linejoin="round"/>
<path d="M159.969 46.3825C159.691 45.8507 159.284 45.3968 158.786 45.0618C158.288 44.7269 157.714 44.5215 157.116 44.4644C156.519 44.4072 155.917 44.5 155.364 44.7344C154.811 44.9687 154.326 45.3373 153.952 45.8066" fill="#FFD400"/>
<path d="M159.969 46.3825C159.691 45.8507 159.284 45.3968 158.786 45.0618C158.288 44.7269 157.714 44.5215 157.116 44.4644C156.519 44.4072 155.917 44.5 155.364 44.7344C154.811 44.9687 154.326 45.3373 153.952 45.8066" stroke="black" stroke-width="2" stroke-linecap="round" stroke-linejoin="round"/>
<path d="M159.566 52.146C159.883 54.0686 158.364 54.5646 156.443 54.8808C154.523 55.1969 152.926 55.2203 152.608 53.2915C152.456 52.3686 152.677 51.4231 153.222 50.663C153.767 49.903 154.591 49.3907 155.514 49.2388C156.437 49.0869 157.382 49.3078 158.142 49.853C158.902 50.3982 159.414 51.2231 159.566 52.146Z" fill="#FFD400" stroke="black" stroke-width="2" stroke-linecap="round" stroke-linejoin="round"/>
<path d="M149.338 55.8766L154.507 60.718L149.643 61.5188" fill="#FFD400"/>
<path d="M149.338 55.8766L154.507 60.718L149.643 61.5188" stroke="black" stroke-width="2" stroke-linecap="round" stroke-linejoin="round"/>
<path d="M146.441 64.8703C148.051 65.8754 150.578 64.7833 151.204 66.7354C151.907 68.9285 147.212 71.4791 143.72 68.9572C140.305 66.492 141.012 63.0992 142.963 62.6281C144.915 62.1571 144.936 63.9313 146.441 64.8703Z" fill="#FFD400" stroke="black" stroke-width="2" stroke-linecap="round" stroke-linejoin="round"/>
<path d="M134.735 136.718L176.485 122.552" stroke="black" stroke-width="2" stroke-linecap="round" stroke-linejoin="round"/>
<path d="M145.036 139.663L167.402 134.194" stroke="black" stroke-width="2" stroke-linecap="round" stroke-linejoin="round"/>
<path d="M103.584 75.0643L110.069 50.9763" stroke="black" stroke-width="2" stroke-linecap="round" stroke-linejoin="round"/>
</g>
<defs>
<clipPath id="clip0">
<rect width="215.303" height="212.329" fill="white" transform="translate(0 34.9756) rotate(-9.34902)"/>
</clipPath>
</defs>
</svg>

<svg width="247" height="245" fill="none" xmlns="http://www.w3.org/2000/svg"><g clip-path="url(#clip0)"><path d="M103.428 115.563l33.697 45.421a5.008 5.008 0 003.881 2.02l15.542.424a4.989 4.989 0 013.88 2.02l15.859 21.376a5.005 5.005 0 01-1.036 7.001l-45.652 33.887a5.015 5.015 0 01-3.714.931 5.003 5.003 0 01-3.285-1.968l-86.24-116.24a5.008 5.008 0 011.037-7.001L83.05 69.548a5.002 5.002 0 016.999 1.035l15.857 21.376a5 5 0 01.809 4.302l-4.098 14.994a5.004 5.004 0 00.81 4.308z" fill="#FF5050" stroke="#000" stroke-width="7" stroke-linecap="round" stroke-linejoin="round"/><path d="M84.486 91.592a2.113 2.113 0 10-.687-4.17 2.113 2.113 0 00.687 4.17zm1.098-7.41a2.113 2.113 0 10-.687-4.17 2.113 2.113 0 00.687 4.17zm-2.192 14.819a2.113 2.113 0 10-.687-4.17 2.113 2.113 0 00.687 4.17zm-6.312-8.507a2.113 2.113 0 10-.687-4.17 2.113 2.113 0 00.687 4.17zm14.812 2.195a2.113 2.113 0 10-.687-4.17 2.113 2.113 0 00.687 4.17z" fill="#FF5050" stroke="#000" stroke-width="2" stroke-linecap="round" stroke-linejoin="round"/><path d="M76.432 135.599l33.698 45.421a4.997 4.997 0 003.881 2.021l15.541.423a5.004 5.004 0 013.881 2.022l15.858 21.375a5.001 5.001 0 01-1.036 7l-18.659 13.851a5.008 5.008 0 01-3.715.932 5.017 5.017 0 01-3.285-1.968L36.357 110.435a5.006 5.006 0 011.036-7l18.662-13.85a5.002 5.002 0 016.998 1.036l15.858 21.376a4.998 4.998 0 01.809 4.3l-4.096 15.005a5 5 0 00.808 4.297z" fill="#2243E5" stroke="#000" stroke-width="2" stroke-linecap="round" stroke-linejoin="round"/><path d="M83.128 111.898l19.775-14.679m-24.561 34.264l21.117-15.673m15.348 64.832l21.117-15.675m-1.335 16.292l19.775-14.676" stroke="#000" stroke-width="2" stroke-linecap="round" stroke-linejoin="round"/><path d="M42.673 81.046l-6.97 5.174 8.903 12 6.97-5.174-8.903-12z" fill="#2243E5" stroke="#000" stroke-width="2" stroke-linecap="round" stroke-linejoin="round"/><path d="M39.153 83.66L9.535 43.735" stroke="#000" stroke-width="2" stroke-linecap="round" stroke-linejoin="round"/><path d="M99.714 149.44l-2.447 1.816a1.57 1.57 0 00-.324 2.195l2.046 2.759a1.569 1.569 0 002.195.325l2.447-1.816a1.569 1.569 0 00.324-2.195l-2.046-2.759a1.57 1.57 0 00-2.195-.325zm6.563-4.871l-2.447 1.816a1.57 1.57 0 00-.325 2.195l2.047 2.759a1.568 1.568 0 002.194.325l2.447-1.816a1.57 1.57 0 00.325-2.195l-2.047-2.759a1.568 1.568 0 00-2.194-.325zm6.562-4.871l-2.447 1.816a1.57 1.57 0 00-.324 2.195l2.046 2.759a1.57 1.57 0 002.195.325l2.447-1.816a1.57 1.57 0 00.324-2.195l-2.046-2.759a1.57 1.57 0 00-2.195-.325z" fill="#FFB3B3" stroke="#000" stroke-width="2" stroke-linecap="round" stroke-linejoin="round"/><path d="M105.679 157.481l-2.447 1.816a1.57 1.57 0 00-.325 2.195l2.047 2.759a1.568 1.568 0 002.195.325l2.446-1.816a1.57 1.57 0 00.325-2.195l-2.047-2.759a1.568 1.568 0 00-2.194-.325z" fill="#FF5050" stroke="#000" stroke-width="2" stroke-linecap="round" stroke-linejoin="round"/><path d="M112.242 152.609l-2.447 1.816a1.57 1.57 0 00-.325 2.195l2.047 2.759a1.568 1.568 0 002.194.325l2.447-1.816a1.57 1.57 0 00.325-2.195l-2.047-2.759a1.568 1.568 0 00-2.194-.325zm6.562-4.87l-2.447 1.816a1.57 1.57 0 00-.325 2.195l2.047 2.759a1.57 1.57 0 002.195.325l2.446-1.816a1.57 1.57 0 00.325-2.195l-2.046-2.759a1.57 1.57 0 00-2.195-.325zm-7.203 17.721l-2.447 1.816a1.57 1.57 0 00-.325 2.195l2.047 2.759a1.569 1.569 0 002.194.325l2.447-1.817a1.57 1.57 0 00.325-2.195l-2.047-2.758a1.567 1.567 0 00-2.194-.325zm6.562-4.87l-2.446 1.816a1.57 1.57 0 00-.325 2.195l2.047 2.758a1.568 1.568 0 002.194.326l2.447-1.817a1.569 1.569 0 00.324-2.195l-2.046-2.758a1.568 1.568 0 00-2.195-.325z" fill="#FFB3B3" stroke="#000" stroke-width="2" stroke-linecap="round" stroke-linejoin="round"/><path d="M159.584 177.125l-14.175 10.522a1.21 1.21 0 00-.251 1.693l.362.487a1.209 1.209 0 001.692.25l14.175-10.522a1.21 1.21 0 00.25-1.692l-.361-.487a1.21 1.21 0 00-1.692-.251zm3.851 5.195l-14.175 10.522a1.21 1.21 0 00-.25 1.692l.361.487a1.21 1.21 0 001.692.251l14.175-10.522a1.21 1.21 0 00.251-1.693l-.361-.487a1.21 1.21 0 00-1.693-.25zm-38.713-26.6l-2.447 1.816a1.57 1.57 0 00-.325 2.195l2.047 2.758a1.568 1.568 0 002.195.325l2.446-1.816a1.57 1.57 0 00.325-2.195l-2.047-2.758a1.567 1.567 0 00-2.194-.325z" fill="#FF5050" stroke="#000" stroke-width="2" stroke-linecap="round" stroke-linejoin="round"/><path d="M85.723 136.792l39.608-99.3 30.947 49.467 27.507 23.486-91.296 35.022" fill="#FFD400"/><path d="M85.723 136.792l39.608-99.3 30.947 49.467 27.508 23.486-91.297 35.022" stroke="#000" stroke-width="2" stroke-linecap="round" stroke-linejoin="round"/><path d="M101.385 124.695l-14.837 11.013a2.61 2.61 0 00-.54 3.65l3.812 5.139a2.61 2.61 0 003.65.541l14.837-11.014a2.61 2.61 0 00.54-3.65l-3.813-5.139a2.608 2.608 0 00-3.649-.54z" fill="#fff" stroke="#000" stroke-width="2" stroke-linecap="round" stroke-linejoin="round"/><path d="M210.135 63.64s9.603 24.187 4.843 31.638c-4.152 6.503-15.04 6.376-19.925 6.252-12.024-.304-12.405-.62-11.262 8.909l-58.271 22.356s-3.588-11.265-.721-25.223a34.642 34.642 0 0121.94-25.496c-7.001-.73-12.577-4.736-15.925-11.44a6.23 6.23 0 01-1.193.318 6.812 6.812 0 01-7.668-4.863 6.815 6.815 0 013.966-8.169c-2.155-5.369-5.335-18.109 3.013-24.842 7.559-6.103 16.888-4.417 16.888-4.417s4.428-8.2 12.019-9.098c8.146-.975 6.686 4.867 6.686 4.867s4.928-1.217 7.718 3.981c2.508 4.703-1.53 8.371-1.53 8.371s1.851 9.847 1.247 13.41a6.813 6.813 0 017.293 5.967 6.82 6.82 0 01-5.637 7.55c-.411.07-.829.098-1.246.084-1.021 7.45-5.83 13.168-12.623 16.153a33.76 33.76 0 014.146.374l.026-.005c17.44.661 31.253 5.668 35.912 1.423 4.114-3.722-9.669-34.082-5.826-35.88 3.072-1.438 3.96 6.63 7.1 7.21 3.139.58 10.147-8.303 12.205-7.79 2.004.497-4.568 8.16-4.945 8.583.453-.29 9.359-6.102 10.942-4.292 1.631 1.844-9.052 8.704-9.052 8.704s9.666-4.73 10.759-2.597c1.093 2.133-10.879 7.963-10.879 7.963z" fill="#FFD400" stroke="#000" stroke-width="2" stroke-linecap="round" stroke-linejoin="round"/><path d="M146.125 54.359c.316 1.922-1.201 2.418-3.123 2.735-1.922.316-3.519.333-3.835-1.59a3.527 3.527 0 015.534-3.438 3.53 3.53 0 011.424 2.293z" fill="#FFD400" stroke="#000" stroke-width="2" stroke-linecap="round" stroke-linejoin="round"/><path d="M137.47 50.19a3.531 3.531 0 013.77-3.012 3.525 3.525 0 011.657.568" fill="#FFD400"/><path d="M137.47 50.19a3.531 3.531 0 013.77-3.012 3.525 3.525 0 011.657.568" stroke="#000" stroke-width="2" stroke-linecap="round" stroke-linejoin="round"/><path d="M159.969 46.383a3.605 3.605 0 00-6.017-.576" fill="#FFD400"/><path d="M159.969 46.383a3.605 3.605 0 00-6.017-.576" stroke="#000" stroke-width="2" stroke-linecap="round" stroke-linejoin="round"/><path d="M159.566 52.146c.317 1.923-1.202 2.419-3.123 2.735-1.92.316-3.517.34-3.835-1.59a3.527 3.527 0 015.534-3.438 3.527 3.527 0 011.424 2.293z" fill="#FFD400" stroke="#000" stroke-width="2" stroke-linecap="round" stroke-linejoin="round"/><path d="M149.338 55.877l5.169 4.841-4.864.8" fill="#FFD400"/><path d="M149.338 55.877l5.169 4.841-4.864.8" stroke="#000" stroke-width="2" stroke-linecap="round" stroke-linejoin="round"/><path d="M146.441 64.87c1.61 1.005 4.137-.087 4.763 1.865.703 2.194-3.992 4.744-7.484 2.222-3.415-2.465-2.708-5.858-.757-6.329 1.952-.47 1.973 1.303 3.478 2.242z" fill="#FFD400" stroke="#000" stroke-width="2" stroke-linecap="round" stroke-linejoin="round"/><path d="M134.735 136.718l41.75-14.166m-31.449 17.111l22.366-5.469m-63.818-59.13l6.485-24.088" stroke="#000" stroke-width="2" stroke-linecap="round" stroke-linejoin="round"/></g><defs><clipPath id="clip0"><path fill="#fff" transform="rotate(-9.349 213.873 17.488)" d="M0 0h215.303v212.329H0z"/></clipPath></defs></svg>
